build/redact/BorderBoldBottomOutline.svg

<svg xmlns="http://www.w3.org/2000/svg" fill="none" viewBox="0 0 24 24" focusable="false"><path d="M0 0H24V24H0z" transform="matrix(1 0 0 -1 0 24)"/><path fill="#74767B" fill-rule="evenodd" d="M7.10514 5.36541C7.282 5.32276 7.46726 5.3 7.65869 5.3L8.31572 5.3C8.67471 5.3 8.96572 5.00898 8.96572 4.65C8.96572 4.29101 8.67471 4 8.31572 4L7.65869 4C7.3638 4 7.07625 4.0351 6.80032 4.10166C6.50256 4.17347 6.30258 4.43965 6.30258 4.733C6.30258 4.78346 6.3085 4.83473 6.32085 4.88594C6.40502 5.23492 6.75616 5.44959 7.10514 5.36541ZM11.3482 4C10.9892 4 10.6982 4.29101 10.6982 4.65C10.6982 5.00898 10.9892 5.3 11.3482 5.3L12.6622 5.3C13.0212 5.3 13.3122 5.00898 13.3122 4.65C13.3122 4.29101 13.0212 4 12.6622 4L11.3482 4ZM15.6947 4C15.3357 4 15.0447 4.29101 15.0447 4.65C15.0447 5.00898 15.3357 5.3 15.6947 5.3L16.3517 5.3C16.5431 5.3 16.7284 5.32276 16.9052 5.36541C17.2542 5.44959 17.6054 5.23492 17.6895 4.88594C17.7019 4.83473 17.7078 4.78346 17.7078 4.733C17.7078 4.43965 17.5078 4.17347 17.2101 4.10166C16.9341 4.0351 16.6466 4 16.3517 4L15.6947 4ZM5.37411 7.09645C5.38646 7.04523 5.39238 6.99397 5.39238 6.94351C5.39238 6.65015 5.1924 6.38398 4.89463 6.31216C4.54566 6.22799 4.19452 6.44265 4.11035 6.79163C4.04379 7.06756 4.00869 7.35511 4.00869 7.65L4.00869 8.3072C4.00869 8.66619 4.29971 8.9572 4.65869 8.9572C5.01768 8.9572 5.30869 8.66619 5.30869 8.3072L5.30869 7.65C5.30869 7.45856 5.33145 7.27331 5.37411 7.09645ZM19.9 6.79163C19.8159 6.44265 19.4647 6.22799 19.1157 6.31216C18.818 6.38398 18.618 6.65015 18.618 6.94351C18.618 6.99397 18.6239 7.04523 18.6363 7.09645C18.6789 7.27331 18.7017 7.45856 18.7017 7.65L18.7017 8.3072C18.7017 8.66619 18.9927 8.9572 19.3517 8.9572C19.7107 8.9572 20.0017 8.66619 20.0017 8.3072L20.0017 7.65C20.0017 7.35511 19.9666 7.06756 19.9 6.79163ZM12.0001 9.57139C12.3591 9.57139 12.6501 9.28037 12.6501 8.92139L12.6501 7.72627C12.6501 7.36728 12.3591 7.07627 12.0001 7.07627C11.6411 7.07627 11.3501 7.36728 11.3501 7.72627L11.3501 8.92139C11.3501 9.28037 11.6411 9.57139 12.0001 9.57139ZM20.0017 11.3405C20.0017 10.9815 19.7107 10.6905 19.3517 10.6905C18.9927 10.6905 18.7017 10.9815 18.7017 11.3405L18.7017 12.6549C18.7017 13.0138 18.9927 13.3049 19.3517 13.3049C19.7107 13.3049 20.0017 13.0138 20.0017 12.6549L20.0017 11.3405ZM5.30869 11.3405C5.30869 10.9815 5.01768 10.6905 4.65869 10.6905C4.29971 10.6905 4.00869 10.9815 4.00869 11.3405L4.00869 12.6549C4.00869 13.0138 4.29971 13.3049 4.65869 13.3049C5.01768 13.3049 5.30869 13.0138 5.30869 12.6549L5.30869 11.3405ZM7.72861 11.3478C7.36963 11.3478 7.07861 11.6388 7.07861 11.9978C7.07861 12.3567 7.36963 12.6478 7.72861 12.6478L8.92373 12.6478C9.28271 12.6478 9.57373 12.3567 9.57373 11.9978C9.57373 11.6388 9.28272 11.3478 8.92373 11.3478L7.72861 11.3478ZM15.0763 11.3478C14.7173 11.3478 14.4263 11.6388 14.4263 11.9978C14.4263 12.3567 14.7173 12.6478 15.0763 12.6478L16.2714 12.6478C16.6304 12.6478 16.9214 12.3567 16.9214 11.9978C16.9214 11.6388 16.6304 11.3478 16.2714 11.3478L15.0763 11.3478ZM4 16.9964C4 18.6533 5.34315 19.9964 7 19.9964L17 19.9964C18.6569 19.9964 20 18.6533 20 16.9964L20 16.4571C20.0011 16.4199 20.0017 16.3827 20.0017 16.3453L20.0017 15.6881C20.0017 15.3291 19.7107 15.0381 19.3517 15.0381C18.9927 15.0381 18.7017 15.3291 18.7017 15.6881L18.7017 16.3453C18.7017 16.379 18.701 16.4124 18.6996 16.4457L12.6253 16.4457C12.6414 16.3889 12.6501 16.329 12.6501 16.2671L12.6501 15.072C12.6501 14.713 12.3591 14.422 12.0001 14.422C11.6411 14.422 11.3501 14.713 11.3501 15.072L11.3501 16.2671C11.3501 16.329 11.3588 16.3889 11.3749 16.4457L5.31078 16.4457C5.30939 16.4124 5.30869 16.379 5.30869 16.3453L5.30869 15.6881C5.30869 15.3291 5.01768 15.0381 4.65869 15.0381C4.29971 15.0381 4.00869 15.3291 4.00869 15.6881L4.00869 16.3453C4.00869 16.3789 4.00915 16.4123 4.01005 16.4457L4 16.4457L4 16.9964Z"/></svg>

<svg xmlns="http://www.w3.org/2000/svg" fill="none" viewBox="0 0 24 24" focusable="false"><path fill="#74767B" fill-rule="evenodd" d="M7.1 5.36c.18-.04.36-.07.55-.07h.66c.36 0 .65-.29.65-.64 0-.36-.29-.65-.65-.65h-.66c-.29 0-.58.03-.85.1a.64.64 0 0 0-.48.78c.08.35.43.56.78.48M11.34 4c-.36 0-.65.29-.65.65 0 .35.29.64.65.64h1.32c.36 0 .65-.29.65-.64 0-.36-.29-.65-.65-.65zm4.35 0c-.36 0-.65.29-.65.65 0 .35.29.64.65.64h.66c.19 0 .37.03.55.07.35.08.7-.13.78-.48.02-.05.02-.1.02-.15 0-.3-.2-.56-.5-.63-.27-.07-.56-.1-.85-.1zM5.37 7.09c.01-.05.02-.1.02-.15 0-.29-.2-.56-.5-.63-.35-.09-.7.13-.78.48-.07.27-.11.56-.11.86v.65c0 .36.29.65.65.65s.65-.29.65-.65v-.65c0-.2.03-.38.07-.56m14.52-.3a.64.64 0 0 0-.78-.48c-.3.07-.5.34-.5.63 0 .05.01.1.02.15.04.18.07.36.07.56v.65c0 .36.29.65.65.65s.65-.29.65-.65v-.65c0-.3-.04-.59-.11-.86M12 9.57c.35 0 .64-.29.64-.65v-1.2c0-.36-.29-.65-.64-.65-.36 0-.65.29-.65.65v1.2c0 .36.29.65.65.65m8 1.77c0-.36-.29-.65-.65-.65s-.65.29-.65.65v1.31c0 .36.29.65.65.65s.65-.29.65-.65zm-14.7 0c0-.36-.29-.65-.65-.65s-.65.29-.65.65v1.31c0 .36.29.65.65.65s.65-.29.65-.65zm2.42 0c-.36 0-.65.29-.65.65s.29.65.65.65h1.2c.36 0 .65-.29.65-.65s-.29-.65-.65-.65zm7.35 0c-.36 0-.65.29-.65.65s.29.65.65.65h1.2c.36 0 .65-.29.65-.65s-.29-.65-.65-.65zM4 16.99c0 1.66 1.34 3 3 3h10c1.65 0 3-1.34 3-3v-1.31c0-.36-.29-.65-.65-.65s-.65.29-.65.65v.66c0 .03 0 .07-.01.1h-6.07c.02-.06.02-.12.02-.18v-1.19c0-.36-.29-.65-.64-.65-.36 0-.65.29-.65.65v1.19c0 .06 0 .12.02.18H5.31c-.01-.03-.01-.07-.01-.1v-.66c0-.36-.29-.65-.65-.65s-.65.29-.65.65v.66c0 .03 0 .07.01.1H4z"/></svg>
